;FLAVOR:Marlin
;TIME:4787
;Filament used: 8.18361m, 0.853981m
;Layer height: 0.2
;MINX:-46.4
;MINY:-8.9
;MINZ:0.25
;MAXX:100.987
;MAXY:38.9
;MAXZ:10.35
;POSTPROCESSED
;KLIPPERSETTINGSPROCESSED
SET_RETRACTION RETRACT_SPEED=20 UNRETRACT_SPEED=20 RETRACT_LENGTH=2 ;KlipperSettingsPlugin

;Generated with Cura_SteamEngine master
T1
M140 S60
M105
M190 S60
;0 S220
M104 S220
M105
;0 S220
M105
M109 S220
M82 ;absolute extrusion mode
G28 ;Home
G90
T0;
G0 F8000 X-50 Y-140 Z0.2 ;移動到左前 A點
G92 E0
G1 F800 X50 Y-140 E30 ;移動到右前B點，並吐料30mm
G92 E0

T1;
G0 F800 X50 Y-138 Z0.2 ;移動到左前 A點
G92 E0
G1 F800 X-50 Y-138 E30 ;移動到右前B點，並吐料30mm
G1 Z1 E29;
G92 E0

T0;
G0 F8000 X-50 Y-136 Z0.2 ;移動到左前 A點
G92 E0
G1 F800 X50 Y-136 E30 ;移動到右前B點，並吐料30mm
G92 E0

T1;
G0 F800 X50 Y-134 Z0.2 ;移動到左前 A點
G92 E0
G1 F800 X-50 Y-134 E30 ;移動到右前B點，並吐料30mm
G1 Z1 E29;
G92 E0
G92 E0

;changing to tool2
G92 E0
G10
;LAYER_COUNT:49
;LAYER:0
M107
G1 F3600 Z0.75
G0 F12000 X-44.883 Y-8.9 Z0.75
;TYPE:SKIRT
G1 F3600 Z0.25
G11
G1 X54.883 Y-8.9 E4.14779
G1 X55.215 Y-8.86 E4.16169
G1 X55.527 Y-8.743 E4.17554
G1 X55.873 Y-8.49 E4.19337
G1 X55.99 Y-8.373 E4.20024
G1 X56.196 Y-8.11 E4.21413
G1 X56.335 Y-7.806 E4.22803
G1 X56.4 Y-7.383 E4.24582
G1 X56.4 Y37.383 E6.10698
G1 X56.36 Y37.715 E6.12088
G1 X56.243 Y38.027 E6.13473
G1 X55.99 Y38.373 E6.15255
G1 X55.873 Y38.49 E6.15943
G1 X55.61 Y38.696 E6.17332
G1 X55.306 Y38.835 E6.18722
G1 X54.883 Y38.9 E6.20501
G1 X-44.883 Y38.9 E10.3528
G1 X-45.215 Y38.86 E10.3667
G1 X-45.527 Y38.743 E10.38056
G1 X-45.873 Y38.49 E10.39838
G1 X-45.99 Y38.373 E10.40526
G1 X-46.196 Y38.11 E10.41915
G1 X-46.335 Y37.806 E10.43304
G1 X-46.4 Y37.383 E10.45084
G1 X-46.4 Y-7.383 E12.31199
G1 X-46.36 Y-7.715 E12.32589
G1 X-46.243 Y-8.027 E12.33975
G1 X-45.99 Y-8.373 E12.35757
G1 X-45.873 Y-8.49 E12.36445
G1 X-45.61 Y-8.696 E12.37833
G1 X-45.306 Y-8.835 E12.39223
G1 X-44.883 Y-8.9 E12.41003
G0 F12000 X-44.883 Y-8.5
G1 F3600 X54.883 Y-8.5 E16.55781
G1 X55.162 Y-8.46 E16.56953
G1 X55.419 Y-8.344 E16.58125
G1 X55.59 Y-8.207 E16.59036
G1 X55.707 Y-8.09 E16.59724
G1 X55.876 Y-7.864 E16.60898
G1 X55.976 Y-7.6 E16.62071
G1 X56 Y-7.383 E16.62979
G1 X56 Y37.383 E18.49094
G1 X55.96 Y37.662 E18.50266
G1 X55.844 Y37.919 E18.51438
G1 X55.707 Y38.09 E18.52349
G1 X55.59 Y38.207 E18.53037
G1 X55.364 Y38.376 E18.54211
G1 X55.1 Y38.476 E18.55384
G1 X54.883 Y38.5 E18.56292
G1 X-44.883 Y38.5 E22.71071
G1 X-45.162 Y38.46 E22.72243
G1 X-45.419 Y38.344 E22.73415
G1 X-45.59 Y38.207 E22.74326
G1 X-45.707 Y38.09 E22.75014
G1 X-45.876 Y37.864 E22.76187
G1 X-45.976 Y37.6 E22.77361
G1 X-46 Y37.383 E22.78268
G1 X-46 Y-7.383 E24.64384
G1 X-45.96 Y-7.662 E24.65556
G1 X-45.844 Y-7.919 E24.66728
G1 X-45.707 Y-8.09 E24.67639
G1 X-45.59 Y-8.207 E24.68327
G1 X-45.364 Y-8.376 E24.695
G1 X-45.1 Y-8.476 E24.70674
G1 X-44.883 Y-8.5 E24.71581
G0 F12000 X-44.883 Y-8.1
G1 F3600 X54.883 Y-8.1 E28.8636
G1 X55.098 Y-8.06 E28.87269
G1 X55.307 Y-7.924 E28.88306
G1 X55.424 Y-7.807 E28.88994
G1 X55.548 Y-7.628 E28.89899
G1 X55.6 Y-7.383 E28.90941
G1 X55.6 Y37.383 E30.77056
G1 X55.56 Y37.598 E30.77965
G1 X55.424 Y37.807 E30.79002
G1 X55.307 Y37.924 E30.7969
G1 X55.128 Y38.048 E30.80595
G1 X54.883 Y38.1 E30.81636
G1 X-44.883 Y38.1 E34.96415
G1 X-45.098 Y38.06 E34.97324
G1 X-45.307 Y37.924 E34.98361
G1 X-45.424 Y37.807 E34.99049
G1 X-45.548 Y37.628 E34.99954
G1 X-45.6 Y37.383 E35.00996
G1 X-45.6 Y-7.383 E36.87111
G1 X-45.56 Y-7.598 E36.8802
G1 X-45.424 Y-7.807 E36.89057
G1 X-45.307 Y-7.924 E36.89745
G1 X-45.128 Y-8.048 E36.9065
G1 X-44.883 Y-8.1 E36.91691
G0 F12000 X-44.883 Y-7.7
G1 F3600 X54.883 Y-7.7 E41.0647
G1 X55.024 Y-7.641 E41.07106
G1 X55.141 Y-7.524 E41.07794
G1 X55.2 Y-7.383 E41.08429
G1 X55.2 Y37.383 E42.94544
G1 X55.141 Y37.524 E42.9518
G1 X55.024 Y37.641 E42.95868
G1 X54.883 Y37.7 E42.96503
G1 X-44.883 Y37.7 E47.11282
G1 X-45.024 Y37.641 E47.11918
G1 X-45.141 Y37.524 E47.12606
G1 X-45.2 Y37.383 E47.13241
G1 X-45.2 Y-7.383 E48.99356
G1 X-45.141 Y-7.524 E48.99992
G1 X-45.024 Y-7.641 E49.0068
G1 X-44.883 Y-7.7 E49.01315
G10
G1 F3600 Z0.75
G0 F12000 X62.396 Y12.078 Z0.75
G1 F3600 Z0.25
G11
G1 X63.392 Y8.796 E49.15575
G1 X63.497 Y8.543 E49.16714
G1 X65.114 Y5.517 E49.30978
G1 X65.267 Y5.289 E49.32119
G1 X67.443 Y2.637 E49.46381
G1 X67.637 Y2.443 E49.47522
G1 X70.289 Y0.267 E49.61784
G1 X70.517 Y0.114 E49.62926
G1 X73.543 Y-1.502 E49.77188
G1 X73.796 Y-1.607 E49.78327
G1 X77.078 Y-2.603 E49.92586
G1 X77.348 Y-2.656 E49.9373
G1 X80.763 Y-2.993 E50.07997
G1 X81.038 Y-2.993 E50.09141
G1 X84.452 Y-2.656 E50.23403
G1 X84.721 Y-2.603 E50.24543
G1 X88.003 Y-1.607 E50.38803
G1 X88.256 Y-1.502 E50.39942
G1 X91.282 Y0.114 E50.54204
G1 X91.51 Y0.267 E50.55345
G1 X94.162 Y2.443 E50.69608
G1 X94.356 Y2.637 E50.70748
G1 X96.532 Y5.289 E50.8501
G1 X96.685 Y5.517 E50.86152
G1 X98.302 Y8.543 E51.00416
G1 X98.407 Y8.796 E51.01555
G1 X99.403 Y12.078 E51.15814
G1 X99.456 Y12.348 E51.16958
G1 X99.793 Y15.763 E51.31225
G1 X99.793 Y16.038 E51.32369
G1 X99.456 Y19.452 E51.46631
G1 X99.403 Y19.721 E51.47771
G1 X98.407 Y23.003 E51.62031
G1 X98.302 Y23.256 E51.6317
G1 X96.685 Y26.282 E51.77434
G1 X96.532 Y26.51 E51.78575
G1 X94.356 Y29.162 E51.92837
G1 X94.162 Y29.356 E51.93978
G1 X91.51 Y31.532 E52.0824
G1 X91.282 Y31.685 E52.09382
G1 X88.256 Y33.302 E52.23646
G1 X88.003 Y33.407 E52.24785
G1 X84.721 Y34.403 E52.39044
G1 X84.452 Y34.456 E52.40184
G1 X81.038 Y34.793 E52.54447
G1 X80.763 Y34.793 E52.5559
G1 X77.348 Y34.456 E52.69857
G1 X77.078 Y34.403 E52.71001
G1 X73.796 Y33.407 E52.85261
G1 X73.543 Y33.302 E52.86399
G1 X70.517 Y31.685 E53.00664
G1 X70.289 Y31.532 E53.01805
G1 X67.637 Y29.356 E53.16067
G1 X67.443 Y29.162 E53.17208
G1 X65.267 Y26.51 E53.3147
G1 X65.114 Y26.282 E53.32612
G1 X63.497 Y23.256 E53.46876
G1 X63.392 Y23.003 E53.48015
G1 X62.396 Y19.721 E53.62274
G1 X62.343 Y19.451 E53.63418
G1 X62.007 Y16.037 E53.77681
G1 X62.007 Y15.763 E53.7882
G1 X62.343 Y12.348 E53.93086
G1 X62.396 Y12.078 E53.9423
G0 F12000 X62.741 Y12.387
G1 F3600 X62.779 Y12.195 E53.95044
G1 X63.775 Y8.913 E54.09303
G1 X63.85 Y8.732 E54.10118
G1 X65.467 Y5.706 E54.24382
G1 X65.576 Y5.543 E54.25197
G1 X67.752 Y2.891 E54.3946
G1 X67.891 Y2.752 E54.40277
G1 X70.543 Y0.576 E54.54539
G1 X70.706 Y0.467 E54.55354
G1 X73.732 Y-1.149 E54.69617
G1 X73.913 Y-1.224 E54.70431
G1 X77.195 Y-2.22 E54.84691
G1 X77.387 Y-2.258 E54.85504
G1 X80.802 Y-2.595 E54.99771
G1 X80.998 Y-2.595 E55.00586
G1 X84.412 Y-2.258 E55.14849
G1 X84.604 Y-2.22 E55.15663
G1 X87.886 Y-1.224 E55.29922
G1 X88.067 Y-1.149 E55.30737
G1 X91.093 Y0.467 E55.44999
G1 X91.256 Y0.576 E55.45814
G1 X93.908 Y2.752 E55.60076
G1 X94.047 Y2.891 E55.60894
G1 X96.223 Y5.543 E55.75156
G1 X96.332 Y5.706 E55.75971
G1 X97.949 Y8.732 E55.90235
G1 X98.024 Y8.913 E55.9105
G1 X99.02 Y12.195 E56.05309
G1 X99.058 Y12.387 E56.06123
G1 X99.395 Y15.802 E56.2039
G1 X99.395 Y15.998 E56.21205
G1 X99.058 Y19.412 E56.35467
G1 X99.02 Y19.604 E56.36281
G1 X98.024 Y22.886 E56.50541
G1 X97.949 Y23.067 E56.51355
G1 X96.332 Y26.093 E56.65619
G1 X96.223 Y26.256 E56.66435
G1 X94.047 Y28.908 E56.80697
G1 X93.908 Y29.047 E56.81514
G1 X91.256 Y31.223 E56.95776
G1 X91.093 Y31.332 E56.96592
G1 X88.067 Y32.949 E57.10856
G1 X87.886 Y33.024 E57.1167
G1 X84.604 Y34.02 E57.2593
G1 X84.412 Y34.058 E57.26743
G1 X80.998 Y34.395 E57.41006
G1 X80.802 Y34.395 E57.41821
G1 X77.387 Y34.058 E57.56088
G1 X77.195 Y34.02 E57.56902
G1 X73.913 Y33.024 E57.71161
G1 X73.732 Y32.949 E57.71976
G1 X70.706 Y31.332 E57.8624
G1 X70.543 Y31.223 E57.87055
G1 X67.891 Y29.047 E58.01317
G1 X67.752 Y28.908 E58.02135
G1 X65.576 Y26.256 E58.16397
G1 X65.467 Y26.093 E58.17212
G1 X63.85 Y23.067 E58.31476
G1 X63.775 Y22.886 E58.32291
G1 X62.779 Y19.604 E58.4655
G1 X62.741 Y19.412 E58.47364
G1 X62.405 Y15.998 E58.61626
G1 X62.405 Y15.802 E58.62441
G1 X62.741 Y12.387 E58.76708
G0 F12000 X63.139 Y12.426
G1 F3600 X63.162 Y12.311 E58.77195
G1 X64.158 Y9.029 E58.91455
G1 X64.203 Y8.92 E58.91945
G1 X65.82 Y5.894 E59.06209
G1 X65.885 Y5.796 E59.06698
G1 X68.061 Y3.144 E59.2096
G1 X68.144 Y3.061 E59.21448
G1 X70.796 Y0.885 E59.35711
G1 X70.894 Y0.82 E59.36199
G1 X73.92 Y-.796 E59.50462
G1 X74.029 Y-.841 E59.50952
G1 X77.311 Y-1.837 E59.65211
G1 X77.426 Y-1.86 E59.65699
G1 X80.841 Y-2.197 E59.79966
G1 X80.959 Y-2.197 E59.80456
G1 X84.373 Y-1.86 E59.94719
G1 X84.488 Y-1.837 E59.95207
G1 X87.77 Y-.841 E60.09466
G1 X87.879 Y-.796 E60.09957
G1 X90.905 Y0.82 E60.24219
G1 X91.003 Y0.885 E60.24708
G1 X93.655 Y3.061 E60.3897
G1 X93.738 Y3.144 E60.39458
G1 X95.914 Y5.796 E60.5372
G1 X95.979 Y5.894 E60.54209
G1 X97.596 Y8.92 E60.68473
G1 X97.641 Y9.029 E60.68963
G1 X98.637 Y12.311 E60.83223
G1 X98.66 Y12.426 E60.83711
G1 X98.997 Y15.841 E60.97977
G1 X98.997 Y15.959 E60.98468
G1 X98.66 Y19.373 E61.12731
G1 X98.637 Y19.488 E61.13218
G1 X97.641 Y22.77 E61.27478
G1 X97.596 Y22.879 E61.27968
G1 X95.979 Y25.905 E61.42232
G1 X95.914 Y26.003 E61.42721
G1 X93.738 Y28.655 E61.56983
G1 X93.655 Y28.738 E61.57471
G1 X91.003 Y30.914 E61.71734
G1 X90.905 Y30.979 E61.72222
G1 X87.879 Y32.596 E61.86487
G1 X87.77 Y32.641 E61.86977
G1 X84.488 Y33.637 E62.01236
G1 X84.373 Y33.66 E62.01724
G1 X80.959 Y33.997 E62.15987
G1 X80.841 Y33.997 E62.16477
G1 X77.426 Y33.66 E62.30744
G1 X77.311 Y33.637 E62.31232
G1 X74.029 Y32.641 E62.45491
G1 X73.92 Y32.596 E62.45982
G1 X70.894 Y30.979 E62.60246
G1 X70.796 Y30.914 E62.60735
G1 X68.144 Y28.738 E62.74997
G1 X68.061 Y28.655 E62.75485
G1 X65.885 Y26.003 E62.89747
G1 X65.82 Y25.905 E62.90236
G1 X64.203 Y22.879 E63.045
G1 X64.158 Y22.77 E63.0499
G1 X63.162 Y19.488 E63.1925
G1 X63.139 Y19.373 E63.19737
G1 X62.803 Y15.959 E63.34
G1 X62.803 Y15.841 E63.3449
G1 X63.139 Y12.426 E63.48757
G0 F12000 X63.537 Y12.465
G1 F3600 X63.545 Y12.427 E63.48918
G1 X64.541 Y9.145 E63.63178
G1 X64.556 Y9.109 E63.6334
G1 X66.173 Y6.083 E63.77604
G1 X66.194 Y6.05 E63.77767
G1 X68.37 Y3.398 E63.92029
G1 X68.398 Y3.37 E63.92194
G1 X71.05 Y1.194 E64.06456
G1 X71.083 Y1.173 E64.06618
G1 X74.109 Y-.443 E64.20881
G1 X74.145 Y-.458 E64.21043
G1 X77.427 Y-1.454 E64.35302
G1 X77.465 Y-1.462 E64.35464
G1 X80.88 Y-1.799 E64.49731
G1 X80.92 Y-1.799 E64.49897
G1 X84.334 Y-1.462 E64.6416
G1 X84.372 Y-1.454 E64.64321
G1 X87.654 Y-.458 E64.78581
G1 X87.69 Y-.443 E64.78743
G1 X90.716 Y1.173 E64.93005
G1 X90.749 Y1.194 E64.93168
G1 X93.401 Y3.37 E65.0743
G1 X93.429 Y3.398 E65.07594
G1 X95.605 Y6.05 E65.21857
G1 X95.626 Y6.083 E65.22019
G1 X97.243 Y9.109 E65.36283
G1 X97.258 Y9.145 E65.36446
G1 X98.254 Y12.427 E65.50705
G1 X98.262 Y12.465 E65.50867
G1 X98.599 Y15.88 E65.65133
G1 X98.599 Y15.92 E65.653
G1 X98.262 Y19.334 E65.79562
G1 X98.254 Y19.372 E65.79724
G1 X97.258 Y22.654 E65.93983
G1 X97.243 Y22.69 E65.94145
G1 X95.626 Y25.716 E66.0841
G1 X95.605 Y25.749 E66.08572
G1 X93.429 Y28.401 E66.22835
G1 X93.401 Y28.429 E66.22999
G1 X90.749 Y30.605 E66.37261
G1 X90.716 Y30.626 E66.37424
G1 X87.69 Y32.243 E66.51688
G1 X87.654 Y32.258 E66.5185
G1 X84.372 Y33.254 E66.6611
G1 X84.334 Y33.262 E66.66271
G1 X80.92 Y33.599 E66.80534
G1 X80.88 Y33.599 E66.807
G1 X77.465 Y33.262 E66.94967
G1 X77.427 Y33.254 E66.95129
G1 X74.145 Y32.258 E67.09388
G1 X74.109 Y32.243 E67.0955
G1 X71.083 Y30.626 E67.23814
G1 X71.05 Y30.605 E67.23977
G1 X68.398 Y28.429 E67.38239
G1 X68.37 Y28.401 E67.38404
G1 X66.194 Y25.749 E67.52666
G1 X66.173 Y25.716 E67.52829
G1 X64.556 Y22.69 E67.67093
G1 X64.541 Y22.654 E67.67255
G1 X63.545 Y19.372 E67.81515
G1 X63.537 Y19.334 E67.81676
G1 X63.201 Y15.92 E67.95938
G1 X63.201 Y15.88 E67.96105
G1 X63.537 Y12.465 E68.10371
G10
G1 F3600 Z0.75
G92 E0

;ending tool2
T0
SET_RETRACTION RETRACT_SPEED=20 UNRETRACT_SPEED=20 RETRACT_LENGTH=2 ;KlipperSettingsPlugin
G92 E0

;changing to tool1
G10
;MESH:ToF_RGB_Camera_Bridge_v2.stl
G0 F12000 X63.537 Y12.465 Z0.75
G0 X61.148 Y12.23
;TYPE:SKIRT
G1 F3600 Z0.25
G11
G1 X61.248 Y11.73 E0.0212
G1 X62.244 Y8.448 E0.16379
G1 X62.439 Y7.978 E0.18495
G1 X64.056 Y4.952 E0.32759
G1 X64.339 Y4.528 E0.34878
G1 X66.515 Y1.876 E0.49141
G1 X66.876 Y1.515 E0.51263
G1 X69.528 Y-.661 E0.65525
G1 X69.952 Y-.944 E0.67645
G1 X72.978 Y-2.56 E0.81907
G1 X73.448 Y-2.755 E0.84023
G1 X76.73 Y-3.751 E0.98282
G1 X77.23 Y-3.85 E1.00401
G1 X80.645 Y-4.187 E1.14668
G1 X81.155 Y-4.187 E1.16788
G1 X84.569 Y-3.85 E1.31051
G1 X85.069 Y-3.751 E1.3317
G1 X88.351 Y-2.755 E1.4743
G1 X88.821 Y-2.56 E1.49545
G1 X91.847 Y-.944 E1.63808
G1 X92.271 Y-.661 E1.65927
G1 X94.923 Y1.515 E1.80189
G1 X95.284 Y1.876 E1.82312
G1 X97.46 Y4.528 E1.96574
G1 X97.743 Y4.952 E1.98693
G1 X99.36 Y7.978 E2.12957
G1 X99.555 Y8.448 E2.15073
G1 X100.551 Y11.73 E2.29332
G1 X100.65 Y12.23 E2.31452
G1 X100.987 Y15.645 E2.45718
G1 X100.987 Y16.155 E2.47839
G1 X100.65 Y19.569 E2.62101
G1 X100.551 Y20.069 E2.64221
G1 X99.555 Y23.351 E2.7848
G1 X99.36 Y23.821 E2.80596
G1 X97.743 Y26.847 E2.9486
G1 X97.46 Y27.271 E2.96979
G1 X95.284 Y29.923 E3.11241
G1 X94.923 Y30.284 E3.13364
G1 X92.271 Y32.46 E3.27626
G1 X91.847 Y32.743 E3.29746
G1 X88.821 Y34.36 E3.4401
G1 X88.351 Y34.555 E3.46125
G1 X85.069 Y35.551 E3.60385
G1 X84.569 Y35.65 E3.62504
G1 X81.155 Y35.987 E3.76767
G1 X80.645 Y35.987 E3.78887
G1 X77.23 Y35.65 E3.93154
G1 X76.73 Y35.551 E3.95273
G1 X73.448 Y34.555 E4.09532
G1 X72.978 Y34.36 E4.11648
G1 X69.952 Y32.743 E4.25912
G1 X69.528 Y32.46 E4.28031
G1 X66.876 Y30.284 E4.42294
G1 X66.515 Y29.923 E4.44416
G1 X64.339 Y27.271 E4.58678
G1 X64.056 Y26.847 E4.60798
G1 X62.439 Y23.821 E4.75062
G1 X62.244 Y23.351 E4.77178
G1 X61.248 Y20.069 E4.91437
G1 X61.149 Y19.569 E4.93556
G1 X60.813 Y16.155 E5.07818
G1 X60.812 Y15.645 E5.09939
G1 X61.148 Y12.23 E5.24205
G0 F12000 X61.547 Y12.27
G1 F3600 X61.631 Y11.846 E5.26002
G1 X62.627 Y8.564 E5.40262
G1 X62.792 Y8.166 E5.42053
G1 X64.409 Y5.14 E5.56317
G1 X64.648 Y4.782 E5.58107
G1 X66.824 Y2.13 E5.72369
G1 X67.13 Y1.824 E5.74168
G1 X69.782 Y-.352 E5.8843
G1 X70.141 Y-.592 E5.90226
G1 X73.167 Y-2.208 E6.04488
G1 X73.564 Y-2.372 E6.06274
G1 X76.846 Y-3.368 E6.20533
G1 X77.269 Y-3.452 E6.22326
G1 X80.684 Y-3.789 E6.36593
G1 X81.116 Y-3.789 E6.38389
G1 X84.53 Y-3.452 E6.52652
G1 X84.953 Y-3.368 E6.54445
G1 X88.235 Y-2.372 E6.68704
G1 X88.632 Y-2.208 E6.7049
G1 X91.658 Y-.592 E6.84752
G1 X92.017 Y-.352 E6.86548
G1 X94.669 Y1.824 E7.0081
G1 X94.975 Y2.13 E7.02609
G1 X97.151 Y4.782 E7.16871
G1 X97.39 Y5.14 E7.18661
G1 X99.007 Y8.166 E7.32925
G1 X99.172 Y8.564 E7.34716
G1 X100.168 Y11.846 E7.48976
G1 X100.252 Y12.269 E7.50769
G1 X100.589 Y15.684 E7.65036
G1 X100.589 Y16.116 E7.66832
G1 X100.252 Y19.53 E7.81095
G1 X100.168 Y19.953 E7.82888
G1 X99.172 Y23.235 E7.97147
G1 X99.007 Y23.633 E7.98938
G1 X97.39 Y26.659 E8.13202
G1 X97.151 Y27.017 E8.14992
G1 X94.975 Y29.669 E8.29254
G1 X94.669 Y29.975 E8.31053
G1 X92.017 Y32.151 E8.45316
G1 X91.659 Y32.39 E8.47105
G1 X88.633 Y34.007 E8.61369
G1 X88.235 Y34.172 E8.63161
G1 X84.953 Y35.168 E8.7742
G1 X84.53 Y35.252 E8.79213
G1 X81.116 Y35.589 E8.93476
G1 X80.684 Y35.589 E8.95272
G1 X77.269 Y35.252 E9.09539
G1 X76.846 Y35.168 E9.11332
G1 X73.564 Y34.172 E9.25591
G1 X73.166 Y34.007 E9.27382
G1 X70.14 Y32.39 E9.41647
G1 X69.782 Y32.151 E9.43436
G1 X67.13 Y29.975 E9.57698
G1 X66.824 Y29.669 E9.59498
G1 X64.648 Y27.017 E9.7376
G1 X64.409 Y26.659 E9.75549
G1 X62.792 Y23.633 E9.89814
G1 X62.627 Y23.235 E9.91605
G1 X61.631 Y19.953 E10.05864
G1 X61.547 Y19.529 E10.07661
G1 X61.211 Y16.115 E10.21924
G1 X61.211 Y15.685 E10.23711
G1 X61.547 Y12.27 E10.37978
G0 F12000 X61.945 Y12.309
G1 F3600 X62.014 Y11.962 E10.39449
G1 X63.01 Y8.68 E10.53708
G1 X63.144 Y8.355 E10.5517
G1 X64.761 Y5.329 E10.69434
G1 X64.957 Y5.035 E10.70903
G1 X67.133 Y2.383 E10.85165
G1 X67.383 Y2.133 E10.86635
G1 X70.035 Y-0.043 E11.00897
G1 X70.329 Y-.239 E11.02366
G1 X73.355 Y-1.855 E11.16629
G1 X73.68 Y-1.989 E11.1809
G1 X76.962 Y-2.985 E11.3235
G1 X77.308 Y-3.054 E11.33816
G1 X80.723 Y-3.391 E11.48083
G1 X81.077 Y-3.391 E11.49555
G1 X84.491 Y-3.054 E11.63818
G1 X84.837 Y-2.985 E11.65285
G1 X88.119 Y-1.989 E11.79544
G1 X88.444 Y-1.855 E11.81006
G1 X91.47 Y-.239 E11.95268
G1 X91.764 Y-0.043 E11.96737
G1 X94.416 Y2.133 E12.10999
G1 X94.666 Y2.383 E12.12469
G1 X96.842 Y5.035 E12.26731
G1 X97.038 Y5.329 E12.282
